svg/fluentui-system-icons/ic_fluent_arrow_reply_all_48_regular.svg

<svg width="48" height="48" viewBox="0 0 48 48" fill="none" xmlns="http://www.w3.org/2000/svg">
<path d="M14.1161 20.3691L23.3085 11.1767C23.7967 10.6885 24.5881 10.6885 25.0763 11.1767C25.5319 11.6323 25.5623 12.3521 25.1674 12.8429L25.0763 12.9444L18.019 20.0005H25C28.2537 20.0005 31.2795 20.7211 33.9036 22.0994L34.3146 22.3225C36.9968 23.8263 39.1742 26.0038 40.6781 28.6859C42.2016 31.4032 43 34.5756 43 38.0005C43 38.6909 42.4404 39.2505 41.75 39.2505C41.0596 39.2505 40.5 38.6909 40.5 38.0005C40.5 34.9964 39.8077 32.2454 38.4974 29.9086C37.2187 27.6278 35.3727 25.7819 33.092 24.5031C30.8849 23.2657 28.3086 22.5794 25.4983 22.5069L25 22.5005H18.015L25.0763 29.5614C25.5319 30.017 25.5623 30.7369 25.1674 31.2277L25.0763 31.3292C24.6207 31.7848 23.9008 31.8152 23.41 31.4203L23.3085 31.3292L14.1161 22.1368C13.6605 21.6812 13.6301 20.9614 14.025 20.4705L14.1161 20.3691L23.3085 11.1767L14.1161 20.3691ZM6.11612 20.3691L15.3085 11.1767C15.7967 10.6885 16.5881 10.6885 17.0763 11.1767C17.5319 11.6323 17.5623 12.3521 17.1674 12.8429L17.0763 12.9444L8.76777 21.2529L17.0763 29.5614C17.5644 30.0496 17.5644 30.841 17.0763 31.3292C16.6207 31.7848 15.9008 31.8152 15.41 31.4203L15.3085 31.3292L6.11612 22.1368C5.6605 21.6812 5.63013 20.9614 6.02499 20.4705L6.11612 20.3691L15.3085 11.1767L6.11612 20.3691Z" fill="#212121"/>
</svg>

<svg xmlns="http://www.w3.org/2000/svg" width="48" height="48"><path d="m14.116 20.37 9.192-9.193a1.25 1.25 0 0 1 1.86 1.666l-.092.101L18.02 20H25c3.254 0 6.28.721 8.904 2.1l.41.223a16.513 16.513 0 0 1 6.364 6.363C42.202 31.403 43 34.576 43 38a1.25 1.25 0 1 1-2.5 0c0-3.005-.692-5.756-2.003-8.092a14.012 14.012 0 0 0-5.405-5.406c-2.207-1.237-4.783-1.924-7.594-1.996L25 22.5h-6.985l7.061 7.061a1.25 1.25 0 0 1 .091 1.667l-.09.101a1.25 1.25 0 0 1-1.667.091l-.102-.09-9.192-9.193a1.25 1.25 0 0 1-.091-1.666l.091-.102 9.192-9.192-9.192 9.192Zm-8 0 9.192-9.193a1.25 1.25 0 0 1 1.86 1.666l-.092.101-8.308 8.309 8.308 8.308a1.25 1.25 0 0 1-1.666 1.86l-.101-.092-9.193-9.192a1.25 1.25 0 0 1-.091-1.666l.091-.102 9.192-9.192-9.192 9.192Z"/></svg>
